assets/img/braze_icons/chevron-selector-vertical.svg

<svg fill="none" height="24" viewBox="0 0 24 24" width="24" xmlns="http://www.w3.org/2000/svg"><g clip-rule="evenodd" fill="#801ed7" fill-rule="evenodd"><path d="m6.29289 14.2929c.39053-.3905 1.02369-.3905 1.41422 0l4.29289 4.2929 4.2929-4.2929c.3905-.3905 1.0237-.3905 1.4142 0s.3905 1.0237 0 1.4142l-5 5c-.3905.3905-1.0237.3905-1.4142 0l-5.00001-5c-.39052-.3905-.39052-1.0237 0-1.4142z"/><path d="m6.29289 9.70711c.39053.39049 1.02369.39049 1.41422 0l4.29289-4.2929 4.2929 4.2929c.3905.39049 1.0237.39049 1.4142 0 .3905-.39053.3905-1.02369 0-1.41422l-5-5c-.3905-.39052-1.0237-.39052-1.4142 0l-5.00001 5c-.39052.39053-.39052 1.02369 0 1.41422z"/></g></svg>

<svg width="24" height="24" viewBox="0 0 24 24" fill="none" xmlns="http://www.w3.org/2000/svg">
<path fill-rule="evenodd" clip-rule="evenodd" d="M6.29289 14.2929C6.68342 13.9024 7.31658 13.9024 7.70711 14.2929L12 18.5858L16.2929 14.2929C16.6834 13.9024 17.3166 13.9024 17.7071 14.2929C18.0976 14.6834 18.0976 15.3166 17.7071 15.7071L12.7071 20.7071C12.3166 21.0976 11.6834 21.0976 11.2929 20.7071L6.29289 15.7071C5.90237 15.3166 5.90237 14.6834 6.29289 14.2929Z" fill="#801ED7"/>
<path fill-rule="evenodd" clip-rule="evenodd" d="M6.29289 9.70711C6.68342 10.0976 7.31658 10.0976 7.70711 9.70711L12 5.41421L16.2929 9.70711C16.6834 10.0976 17.3166 10.0976 17.7071 9.70711C18.0976 9.31658 18.0976 8.68342 17.7071 8.29289L12.7071 3.29289C12.3166 2.90237 11.6834 2.90237 11.2929 3.29289L6.29289 8.29289C5.90237 8.68342 5.90237 9.31658 6.29289 9.70711Z" fill="#801ED7"/>
</svg>
